build/documents/PersonCardOutline.svg

<svg xmlns="http://www.w3.org/2000/svg" fill="none" viewBox="0 0 24 24" focusable="false"><path d="M0 0H24V24H0z"/><path fill="#74767B" fill-rule="evenodd" d="M7 3C5.34315 3 4 4.34315 4 6L4 18C4 19.6569 5.34315 21 7 21L17 21C18.6569 21 20 19.6569 20 18L20 6C20 4.34315 18.6569 3 17 3L7 3ZM17 4.3L7 4.3C6.06112 4.3 5.3 5.06112 5.3 6L5.3 18C5.3 18.9389 6.06112 19.7 7 19.7L17 19.7C17.9389 19.7 18.7 18.9389 18.7 18L18.7 6C18.7 5.06112 17.9389 4.3 17 4.3ZM9.61138 9.2754C9.45909 7.862 10.5719 6.63126 11.9935 6.64093C13.4052 6.65052 14.4981 7.87995 14.3424 9.28305L14.2055 10.5156C14.0785 11.6597 13.1063 12.5222 11.9551 12.5119C10.8166 12.5016 9.86622 11.6404 9.74424 10.5084L9.61138 9.2754ZM13.0503 9.1396L12.9134 10.3722C12.86 10.8535 12.451 11.2162 11.9668 11.2119C11.4879 11.2076 11.0881 10.8453 11.0368 10.3691L10.9039 9.13613C10.8348 8.49488 11.3397 7.93651 11.9846 7.9409C12.6251 7.94525 13.121 8.50303 13.0503 9.1396ZM8.8237 14.8919C9.51595 14.0164 10.5707 13.5058 11.6868 13.5058L12.3237 13.5058C13.4694 13.5058 14.5486 14.0437 15.2383 14.9586L15.4295 15.2122C16.1 16.1018 15.4655 17.3749 14.3515 17.3749L9.64891 17.3749C8.5205 17.3749 7.89007 16.0727 8.58995 15.1876L8.8237 14.8919ZM11.6868 14.8058C10.9682 14.8058 10.2891 15.1346 9.84344 15.6982L9.60969 15.9939C9.59881 16.0076 9.59803 16.0151 9.59773 16.0185C9.59719 16.0247 9.59821 16.0349 9.6039 16.0467C9.6096 16.0584 9.61699 16.0656 9.62217 16.069C9.62501 16.0708 9.63137 16.0749 9.64891 16.0749L14.3515 16.0749C14.3685 16.0749 14.3749 16.071 14.3779 16.069C14.3832 16.0656 14.3905 16.0586 14.3962 16.0472C14.4019 16.0358 14.4031 16.0257 14.4026 16.0195C14.4024 16.0159 14.4016 16.0084 14.3914 15.9948L14.2002 15.7412C13.7561 15.1521 13.0613 14.8058 12.3237 14.8058L11.6868 14.8058Z"/></svg>

<svg xmlns="http://www.w3.org/2000/svg" fill="none" viewBox="0 0 24 24" focusable="false"><path fill="#74767B" fill-rule="evenodd" d="M7 3C5.34 3 4 4.34 4 6v12c0 1.65 1.34 3 3 3h10c1.65 0 3-1.35 3-3V6c0-1.66-1.35-3-3-3zm10 1.29H7c-.94 0-1.7.77-1.7 1.71v12c0 .93.76 1.7 1.7 1.7h10c.93 0 1.7-.77 1.7-1.7V6c0-.94-.77-1.71-1.7-1.71m-5.01 2.35c-1.42-.01-2.54 1.22-2.38 2.63l.13 1.23c.12 1.14 1.07 2 2.21 2.01 1.15.01 2.12-.86 2.25-2l.14-1.23a2.38 2.38 0 0 0-2.35-2.64m.92 3.73.14-1.24c.07-.63-.43-1.19-1.07-1.19a1.07 1.07 0 0 0-1.08 1.19l.13 1.23a.945.945 0 0 0 1.88.01m-4.09 4.52a3.64 3.64 0 0 1 2.86-1.39h.64c1.14 0 2.22.54 2.91 1.45l.19.26c.68.89.04 2.16-1.07 2.16H9.64c-1.12 0-1.75-1.3-1.06-2.19zm2.86-.09c-.72 0-1.4.33-1.84.89l-.24.3c-.01.01-.01.02-.01.02 0 .01 0 .02.01.03 0 .01.01.02.02.02 0 .01.01.01.02.01h4.71c.01 0 .02 0 .02-.01.01 0 .02-.01.02-.02.01-.01.01-.02.01-.03 0 0 0-.01-.01-.02l-.19-.25c-.45-.59-1.14-.94-1.88-.94z"/></svg>
